X:1
T:Keep on Praying
T:Mabel F. Gohl
T:Keep on Praying
T:Public Domain
T:Public Domain
C:Mabel F. Gohl
Z:Public Domain
%%score ( 1 2 ) ( 3 4 )
L:1/8
M:2/4
K:F
V:1 treble 
V:2 treble 
V:3 bass 
V:4 bass 
V:1
 [FA]2 [FA]2 | [CG] [CF]2 [A,C] | [B,D]2 (D_D) | [CA]4 | [Fd]2 [F_d]2 | [Fc] [CA]2 [^CG] | %6
w: 1.~Keep on|pray- ing to|God on *|Keep|on pray-|ing, He hears|
w: 2.~Keep on|pray- ing when|bowed with *|Keep|on pray-|ing and you|
w: 3.~Keep on|pray- ing, you’ll|grow in *|Keep|on pray-|ing and win|
w: 4.~Keep on|pray- ing, He’s|ev- er *|Keep|on pray-|ing, ’twill ban-|
w: 5.~Keep on|pray- ing all|through the *|Prayer|will pur-|chase a crown|
 [DF]2 [FA]2 | [EG]4 | [FA]2 [FA]2 | [CG] [CF]2 [A,C] | [B,D]2 (D_D) | [CA]4 | [Fd]2 [F_d]2 | %13
w: your cry;|God|will an-|swer the sin-|cere heart, *|on|pray- ing,|
w: will win;|Je-|sus suf-|fered on Cal-|va- ry, *|on|pray- ing,|
w: the race;|Je-|sus loves|you, His Word|is true, *|on|pray- ing,|
w: ish fear;|“Thro’|the val-|ley” He’ll walk|with thee; *|thy|foot- steps|
w: of life;|Heav’n|is ring-|ing with songs|a- bove; *|le-|lu- jahs,|
 [Fc][FA] F[FG] | [FA]2 [EG]2 | [CF]3 ||"^Refrain" [Ac] | [Bd]2 [Bd]2 | [Bd] [Ac]2 [Fc] | %19
w: He will do His||||||
w: He will an- swer|For Je-|sus|hears|you, He’s|list- ’ning, list-|
w: He will an- swer||||||
w: to e- ter- ni-||||||
w: for a Sav- ior’s||||||
 [Fd][Fc] [Ec][FA] | GF E_C | [CF]2 [_EA]2 | [Dc] [DB]2 [_DG] | [CF][FA] [EA]>[CG] | [CF]4 |] %25
w: ||||||
w: ’ning to your plea,|So keep on pray-|And He|will an- swer|thee. * * *||
w: ||||||
w: ||||||
w: ||||||
V:2
 x4 | x4 | x2 F2 | x4 | x4 | x4 | x4 | x4 | x4 | x4 | x2 F2 | x4 | x4 | x2 F x | x4 | x3 || x | %17
w: ||high,||||||||Keep|||part.||||
w: ||sin,||||||||Keep|||thee.||||
w: ||grace,||||||||Keep|||you.||||
w: ||near,||||||||Guide|||ty.||||
w: ||strife,||||||||Hal-|||love!||||
 x4 | x4 | x4 | G3 x | x4 | x4 | x4 | x4 |] %25
w: ||||||||
w: |||ing,|||||
w: ||||||||
w: ||||||||
w: ||||||||
V:3
 [F,C]2 [F,C]2 | [E,B,] [F,A,]2 F, | [B,,F,]2 [B,,B,]2 | [F,A,]4 | [B,,B,]2 B,2 | %5
w: ~ ~|~ ~ ~|~ ~|~|~ ~|
 A, [F,A,]2 [E,A,] | (A,=C) [G,=B,]2 | [C,C]4 | [F,C]2 [F,C]2 | [E,B,] [F,A,]2 F, | %10
w: ~ ~ ~|~ * ~|~|~ ~|~ ~ ~|
 [B,,F,]2 [B,,B,]2 | [F,A,]4 | [B,,B,]2 (F,G,) | [C,A,][C,A,] [D,=B,][D,B,] | [C,C]2 [C,_B,]2 | %15
w: ~ ~|~|~ ~ *|~ ~ ~ ~|~ ~|
 [F,A,]3 || [F,F] | [B,F]2 [B,F]2 | [B,F] [F,F]2 [A,C] | B,[A,C] [G,C][F,C] | %20
w: ~|list-|’ning to|your plea; *||
 [E,C][D,=B,] [C,C][E,_B,] | [F,A,]2 [F,C]2 | [^F,A,] [G,B,]2 [G,B,] | [C,A,][C,C] [C,C]>[C,B,] | %24
w: ||||
 [F,A,]4 |] %25
w: |
V:4
 x4 | x3 F, | x4 | x4 | x2 B,2 | A, x3 | D,2 x2 | x4 | x4 | x3 F, | x4 | x4 | x2 B,,2 | x4 | x4 | %15
w: |~|||~|~|~|||~|||~|||
 x3 || x | x4 | x4 | B, x3 | x4 | x4 | x4 | x4 | x4 |] %25
w: ||||||||||

